!!!COM: Beethoven, Ludwig van
!!!CDT: 1770///-1827///
!!!ODT: 1825///-1826///
!!!OTL: String Quartet No. 14 in C-sharp Minor, Op. 131
!!!OPS: Op. 131
!!!OMV: Mvmt. 4
!!!OMD: Adagio ma non troppo e molto cantabile
!!!PDT: 1827///
!!!PPP: Mainz
!!!ODE: Dem Baron von Stutterheim gewidmet
!!!MPD: 1825///-1826///
**kern	**dynam	**kern	**dynam	**kern	**dynam	**kern	**dynam
*staff4	*staff4	*staff3	*staff3	*staff2	*staff2	*staff1	*staff1
*Icello	*Icello	*Iviola	*Iviola	*Ivioln	*Ivioln	*Ivioln	*Ivioln
*clefF4	*clefF4	*clefC3	*clefC3	*clefG2	*clefG2	*clefG2	*clefG2
*k[f#c#g#d#]	*k[f#c#g#d#]	*k[f#c#g#d#]	*k[f#c#g#d#]	*k[f#c#g#d#]	*k[f#c#g#d#]	*k[f#c#g#d#]	*k[f#c#g#d#]
*c#:	*c#:	*c#:	*c#:	*c#:	*c#:	*c#:	*c#:
*M2/2	*M2/2	*M2/2	*M2/2	*M2/2	*M2/2	*M2/2	*M2/2
*MM69	*MM69	*MM69	*MM69	*MM69	*MM69	*MM69	*MM68
4r	.	4r	.	4r	.	(4g#/	.
=1	=1	=1	=1	=1	=1	=1	=1
1r	.	1r	.	1r	.	2b#\	.
.	.	.	.	.	.	2cc#\)	.
=2	=2	=2	=2	=2	=2	=2	=2
1r	.	1r	.	1r	.	2.a/	.
.	.	.	.	.	.	(4g#/	p
=3	=3	=3	=3	=3	=3	=3	=3
1r	.	1r	.	1r	.	4f#/	.
.	.	.	.	.	.	4a/	.
.	.	.	.	.	.	4g#/	.
.	.	.	.	.	.	4f#/	.
=4	=4	=4	=4	=4	=4	=4	=4
1r	.	1r	.	2r	.	4e/	.
.	.	.	.	.	.	4f#/)	.
.	.	.	.	4r	.	[2g#/	.
.	.	.	.	(4c#/	.	.	.
=5	=5	=5	=5	=5	=5	=5	=5
1r	.	1r	.	2e#/	.	(4g#/]	.
.	.	.	.	.	.	2b\	.
.	.	.	.	2f#/)	.	.	.
.	.	.	.	.	.	[4a/)	.
=6	=6	=6	=6	=6	=6	=6	=6
1r	.	1r	.	2.dn/	.	(4a/]	.
.	.	.	.	.	.	4e#/	.
.	.	.	.	.	.	4f#/	.
.	.	.	.	(4c#/	p	4a/	.
=7	=7	=7	=7	=7	=7	=7	=7
1r	.	1r	.	4B/	.	4gn/	.
.	.	.	.	4dn/	.	2e#/	.
.	.	.	.	4c#/	.	.	.
.	.	.	.	4B/	.	4ee#\)	.
=8	=8	=8	=8	=8	=8	=8	=8
1r	.	2r	.	4A/	.	(2ff#\	.
.	.	.	.	4B/	.	.	.
.	.	4r	.	4c#/)	.	4een\	.
.	.	(4G#/	.	(4B#/	.	[4dd#\)	.
=9	=9	=9	=9	=9	=9	=9	=9
1r	.	2B#/	.	4d#/	.	(4dd#\]	.
.	.	.	.	2G#/)	.	4ff#\	.
.	.	2c#\)	.	.	.	4ee\)	.
.	.	.	.	(4g#/	.	[4ee\	.
=10	=10	=10	=10	=10	=10	=10	=10
1r	.	2.A/	.	2b#\	.	(4ee\]	.
.	.	.	.	.	.	2dd#\	.
.	.	.	.	4cc#\	.	.	.
.	.	(4G#/	.	4bn\	.	[4ee\)	.
=11	=11	=11	=11	=11	=11	=11	=11
1r	.	4F#/	.	4a#/	.	2.ee\]	.
.	.	4A/	.	4cc#\	.	.	.
.	.	4G#/	.	4b\)	.	.	.
.	.	4F#/	.	(4An/	.	[4ddn\	.
=12	=12	=12	=12	=12	=12	=12	=12
2r	.	4E/	.	4G#/	.	(4dd\]	.
.	.	4F#/)	.	4A/	.	4cc#\	.
4r	.	[2G#/	p	4d#/	.	4b#\	.
(4C#/	.	.	.	4fn/)	.	[4bn\)	p
=13	=13	=13	=13	=13	=13	=13	=13
2Fn\	.	(4G#/]	.	(4dn/	p	(4b\]	.
.	.	4g#\	.	4B/	.	4dn/	.
2F#\)	.	4a#\	.	4A#/	.	4c#/	.
.	.	[4f#\)	.	4c#/)	.	[4a#/)	.
=14	=14	=14	=14	=14	=14	=14	=14
2.Dn\	.	4f#\]	.	(4dn/	.	(4a#/]	.
.	.	(4Gn/	.	2B/	.	2b\	.
.	.	4F#/	.	.	.	.	.
(4C#/	p	4E/	.	4A#/)	.	4cc#\	.
=15	=15	=15	=15	=15	=15	=15	=15
4BB/	.	4Dn/	.	(4B/	.	4ddn\	.
4Dn\	.	4Fn/	.	4G#/	.	4b\	.
4C#/	.	4E/	.	4An/	.	4cc#\	.
4BB/	.	4D/)	.	4B/	.	4dd\)	.
=16	=16	=16	=16	=16	=16	=16	=16
4AA/	.	(4C#/	.	2.c#/)	.	(2.ee\	.
4BB/)	.	4Dn/	.	.	.	.	.
[2C#/	.	4E/	.	.	.	.	.
.	.	[4F#/)	.	(4B/	.	[4ddn\)	.
=17	=17	=17	=17	=17	=17	=17	=17
(4C#/]	.	(4F#/]	.	2A#/	.	(4dd\]	.
4E\	.	4Gn/	.	.	.	4cc#\	.
4Dn\	.	4F#/	.	4B/	.	4ddn\	.
4C#/)	.	4E/)	.	4c#/)	.	4ee\)	.
=18	=18	=18	=18	=18	=18	=18	=18
(4BB/	.	(4Dn/	.	(4dn/	.	2.ff#\	.
4C#/	.	4E/	.	4a#/	.	.	.
4Dn\	.	4F#/)	.	4b\	.	.	.
[4D#\)	.	[4f#\	.	4b#\)	.	(4ff#\	.
=19	=19	=19	=19	=19	=19	=19	=19
(4D#\]	.	(4f#\]	.	(4b#\	.	4aa\	.
4E\	.	4e\	.	4cc#\	.	4gg#\	.
4F#\	.	4d#\	.	4an/	.	4ff#\	.
4F##\)	.	[4c#\)	.	4a#/)	.	[4ee\)	.
=20	=20	=20	=20	=20	=20	=20	=20
(4G#\	p	(2c#\]	p	(4g#/	p	(2ee\]	p
4A\	.	.	.	4f##/	.	.	.
4G#\	.	2B#/)	.	4g#/	.	4dd#\)	.
[4F#\)	.	.	.	4dd#\)	.	(4gg#\	.
=21	=21	=21	=21	=21	=21	=21	=21
(4F#\]	.	4r	.	1r	.	2bb#\	.
4E#\)	.	(2G#/	.	.	.	.	.
4r	.	.	.	.	.	2ccc#\)	.
(4CC#/	.	4Fn/)	.	.	.	.	.
=22	=22	=22	=22	=22	=22	=22	=22
2EE#/	.	(4C#/	.	4r	.	(4bbn\	p
.	.	4c#\	.	(2cc#\	p	4aa\)	.
2FF#/)	.	4A/	.	.	.	4r	.
.	.	4A#/)	.	4a#/	.	(4ff#\	.
=23	=23	=23	=23	=23	=23	=23	=23
(4EEn/	.	4r	.	4f#/)	.	2aa#\	.
4DD#/)	.	(2F#/	.	(4f#/	.	.	.
4r	.	.	.	4dn/	.	2bb\)	.
(4BB/	.	4D#/	.	4d#/)	.	.	.
=24	=24	=24	=24	=24	=24	=24	=24
2Dn\	.	4B/)	p	4r	.	(4aan\	p
.	.	(4g#\	.	(4b\	p	4gg#\)	.
4E\)	.	4f#\	.	4a/	.	2r	.
*clefC4	*clefC4	*	*	*	*	*	*
(4B\	.	4e\)	.	4g#/	.	.	.
=25	=25	=25	=25	=25	=25	=25	=25
2d#\	.	4r	.	4f#/	.	2r	.
.	.	(4b\	.	4g#/	.	.	.
[2e\)	.	4a\	.	4f#/	.	4r	.
.	.	4g#\	.	4e/	.	(4bb\	.
=26	=26	=26	=26	=26	=26	=26	=26
2.e\]	.	4f#\	.	4a/	.	2ddd#\	.
.	.	4B/	.	4g#/	.	.	.
.	.	4A/	.	4B#/	.	4.eee\	.
*clefF4	*clefF4	*	*	*	*	*	*
4EE/	.	[4G#/)	.	4Bn/)	.	.	.
.	.	.	.	.	.	8b\)	.
=27	=27	=27	=27	=27	=27	=27	=27
(2GG#/	.	(4G#/]	.	2.e/	.	(2b#\	.
.	.	2E/	.	.	.	.	.
4AA/	.	.	.	.	.	4cc#\	.
4GGn/	p	[4C#/)	p	(4e#/	p	4bn\	p
=28	=28	=28	=28	=28	=28	=28	=28
4FF#/	.	4C#/]	.	4f#/	.	4a#/	.
4AA#/	.	(2F#/	.	4en/	.	4cc#\	.
4BB/	.	.	.	4d#/	.	4b\	.
4D#\	.	4f#\	.	[4B/	.	4an/	.
=29	=29	=29	=29	=29	=29	=29	=29
4E\	.	4e\)	.	4B/]	.	4g#/	.
4GG#/	.	2E/	.	4dn/	.	4b\	.
4AAn/	.	.	.	4c#/	.	4a/	.
4C#/	.	4E/	.	4e/	.	4g#/	.
=30	=30	=30	=30	=30	=30	=30	=30
4D#\	.	(4F#/	.	4A/	.	4f#/	.
4FF#/	.	2D#/	.	4c#/	.	4a/	.
4GG#/	.	.	.	4B#/	.	4g#/	.
4BB#/	.	4d#\)	.	[4G#/)	.	4f#/)	.
=31	=31	=31	=31	=31	=31	=31	=31
4C#/)	.	(4c#\	.	4G#/]	.	(4e/	.
2r	.	4g#\	.	(4bn\	.	4ee\	.
.	.	2f#\)	.	4dd#\	.	4ff#\	.
*clefC4	*clefC4	*	*	*	*	*	*
(4e\	.	.	.	4cc#\	.	4aa#\	.
=32	=32	=32	=32	=32	=32	=32	=32
4d#\	.	(4f#\	.	4b\)	.	4bb\	.
4g#\	.	4b\	.	2r	.	4dd#\	.
4e\	.	4g#\	.	.	.	4ee\	.
4d#\	.	4f#\)	.	(4b\	.	4gg#\)	.
=33	=33	=33	=33	=33	=33	=33	=33
4c#\	.	4e\	.	4a#/	.	(4aa#\	.
4e\	.	4r	.	2gn/	.	4cc#\	.
4d#\	.	2r	.	.	.	4dd#\	.
4c#\)	.	.	.	4a#/)	.	4ff##\)	.
=34	=34	=34	=34	=34	=34	=34	=34
(4B\	.	2r	.	(4d#/	.	2.gg#\	.
4c#\	.	.	.	4e/	.	.	.
4d#\)	.	4r	.	4b\)	.	.	.
[4D#/	.	(4d#\	.	[4a#/	.	(4ff##\	.
=35	=35	=35	=35	=35	=35	=35	=35
(2D#/]	.	2f##\	.	(4a#/]	.	(4ff##\)	.
.	.	.	.	4A#/	.	2ccc#\	.
2E/)	.	2g#\)	.	4G#/	.	.	.
.	.	.	.	4g#/)	.	[4bb\)	.
=36	=36	=36	=36	=36	=36	=36	=36
[1F#	.	2.e\	.	(4c#/	.	(4bb\]	.
.	.	.	.	2gn/	.	4aa#\	.
.	.	.	.	.	.	4ccc#\	.
.	.	(4d#\	.	[4f#/)	.	4bb\	.
=37	=37	=37	=37	=37	=37	=37	=37
1F#_	.	4c#\	.	(4f#/]	.	4aa#\	.
.	.	4e\	.	4a#/	.	4ccc#\	.
.	.	4d#\	.	4b\	.	4bb\	.
.	.	4c#\	.	4e/) 4cc#/	.	4aa#\)	.
=38	=38	=38	=38	=38	=38	=38	=38
2.F#/]	p	4d#\	p	(4f#/	p	(4bb\	p
.	.	4f#\	.	4b\	.	4ddd#\	.
.	.	4e\	.	4a#/	.	4ccc#\	.
*clefF4	*clefF4	*	*	*	*	*	*
(4FF#/	.	4d#\)	.	4b\	.	4bb\	.
=39	=39	=39	=39	=39	=39	=39	=39
4C#/	.	[1F#	.	4ee\	.	2aa#\	.
4E\	.	.	.	4cc#\	.	.	.
4D#\	.	.	.	4b\	.	4bb\	.
4C#/	.	.	.	4a#/)	.	4ccc#\)	.
=40	=40	=40	=40	=40	=40	=40	=40
4D#\	.	(4F#/]	.	(4ff#\	.	(2bb\	.
4F#\	.	4B/	.	4dd#\	.	.	.
4E\	.	4A#/	.	4cc#\	.	4ccc#\	.
4D#\)	.	4B/)	.	4b\)	.	[4ddd#\)	.
=41	=41	=41	=41	=41	=41	=41	=41
1D#	.	(4A#/	.	(4f##/	.	(4ddd#\]	.
.	.	4c#\	.	4a#/	.	[2.dd#\)	.
.	.	4B/	.	4g#/	.	.	.
.	.	4A#/	.	4gn/	.	.	.
=42	=42	=42	=42	=42	=42	=42	=42
1GG#	.	4G#/	.	4b\	.	1dd#_	.
.	.	4B/	.	4dd#\	.	.	.
.	.	4A#/	.	4cc#\	.	.	.
.	.	4G#/)	.	4b\)	.	.	.
=43	=43	=43	=43	=43	=43	=43	=43
1E-	.	(4A#/	.	(4f##/	.	2.dd#\]	.
.	.	4c#\	.	4a#/	.	.	.
.	.	4B/	.	4g#/	.	.	.
.	.	4B-/)	.	4g-/	.	(4ee-\	.
=44	=44	=44	=44	=44	=44	=44	=44
1BB-	.	&((4B-/&)	.	4fn/	.	4ddn\	.
.	.	4G#/	.	4dn/	.	4ffn\	.
.	.	4G-/	.	4e-/	.	4ee-\	.
.	.	4Fn/	.	4f/	.	4dd\	.
=45	=45	=45	=45	=45	=45	=45	=45
*k[b-e-a-d-g-c-]	*k[b-e-a-d-g-c-]	*k[b-e-a-d-g-c-]	*k[b-e-a-d-g-c-]	*k[b-e-a-d-g-c-]	*k[b-e-a-d-g-c-]	*k[b-e-a-d-g-c-]	*k[b-e-a-d-g-c-]
2E-\	.	4G-/	.	4B-/	.	4ee-\	.
.	.	4B-/	.	4e-/	.	4gg-\	.
2EE-/	.	4A-/)	.	4fn/)	.	4ffn\	.
.	.	(4g-\	.	(4b-\	.	4ee-\)	.
=46	=46	=46	=46	=46	=46	=46	=46
1r	.	2f\	.	2ddn\	.	4r	.
.	.	.	.	.	.	(4bb-\	.
.	.	4e-\)	.	2ee-\)	.	4aa-\	.
.	.	(4E-/	.	.	.	4ggn\)	.
=47	=47	=47	=47	=47	=47	=47	=47
4r	.	2Gn/	.	4e-/ 4ccn/	.	1r	.
(4EE-/	.	.	.	2r	.	.	.
4DD-/	.	2A-/)	.	.	.	.	.
4CCn/)	.	.	.	(4a-/	.	.	.
=48	=48	=48	=48	=48	=48	=48	=48
4r	.	4F/	.	2ccn\	.	4r	.
*clefC4	*clefC4	*	*	*	*	*	*
(4f\	.	2r	.	.	.	(4aa-\	.
4e-\	.	.	.	2dd-\)	.	4gg-\	.
[4d-\)	.	(4D-/	.	.	.	4ff\)	.
=49	=49	=49	=49	=49	=49	=49	=49
4d-\]	.	2F/	.	(4b-\	.	4r	.
2r	.	.	.	4dd-\	.	(4bb-\	.
.	.	2G-/)	.	4cc-\	.	4aa-\	.
*clefF4	*clefF4	*	*	*	*	*	*
(4DD-/	.	.	.	4b-\)	.	4gg-\)	.
=50	=50	=50	=50	=50	=50	=50	=50
2FF/	.	(4F/	.	(4a-/	.	4aa-\	.
.	.	2D-/)	.	4.d-/	.	(4aa-\	.
4GG-/)	.	.	.	.	.	4b-\	.
.	.	.	.	8c-/)	.	.	.
(4EE-/	.	(8G-/L	.	[4B-/	.	[4bb-\)	.
.	.	[8Gn/J)	.	.	.	.	.
=51	=51	=51	=51	=51	=51	=51	=51
2GGn/	.	(4G/]	.	(4B-/]	.	4bb-\]	.
.	.	2E-/)	.	4.e-/	.	(4bb-\	.
4AA-/)	.	.	.	.	.	4ccn\	.
.	.	.	.	8d-/)	.	.	.
(4FF/	.	(8A-/L	.	[4cn/	.	[4cccn\)	.
.	.	[8An/J)	.	.	.	.	.
=52	=52	=52	=52	=52	=52	=52	=52
2AAn/	.	(4A/]	.	(4c/]	.	4ccc\]	.
.	.	2F/)	.	4.f/	.	(4cccn\	.
4BB-/)	.	.	.	.	.	4dd-\	.
.	.	.	.	8e-/)	.	.	.
(4FF#/	.	(8An/L	.	[4d-/	.	[4ddd-\)	.
.	.	[8B-/J)	.	.	.	.	.
=53	=53	=53	=53	=53	=53	=53	=53
2AA#/	.	(4B-/]	.	(4d-/]	.	4ddd-\]	.
.	.	2F#/)	.	4.g-/	.	(4ddd-\	.
2C-/)	.	.	.	.	.	4een\)	.
.	.	.	.	8en/)	.	.	.
.	.	(8A#/L	.	(4d#/	.	8r	.
.	.	8Bn/J)	.	.	.	8ff#\	.
=54	=54	=54	=54	=54	=54	=54	=54
*k[f#c#g#d#a#]	*k[f#c#g#d#a#]	*k[f#c#g#d#a#]	*k[f#c#g#d#a#]	*k[f#c#g#d#a#]	*k[f#c#g#d#a#]	*k[f#c#g#d#a#]	*k[f#c#g#d#a#]
2.GG#/	f	(8Bn\L	f	4d#/)	f	(4aa#\	f
.	.	8c#\)	.	.	.	.	.
.	.	(8c#\	.	4r	.	4bbn\	.
.	.	8d#\J)	.	.	.	.	.
.	.	4d#\	.	(8bn\L	.	4.gg#\)	.
.	.	.	.	8b#\)	.	.	.
(4FF#/	.	(8D#/L	.	(8b#\	.	.	.
.	.	8B#/J)	.	8dd#\J)	.	[8gg#\	p
=55	=55	=55	=55	=55	=55	=55	=55
4EE/	p	(8c#\L	p	(8g#/L	p	8gg#\L]	.
.	.	8e\	.	8c#/	.	(8gg#\	.
4GG#/	.	8d#\	.	8d#/	.	8ff#\	.
.	.	8c#\J	.	8e/J	.	8ee\J	.
2FF#/)	.	8B/L	.	8f#/L	.	8dd#\L	.
.	.	8c#/J	.	8e/	.	8ee\J	.
.	.	[4d#\)	.	8B/	.	[4ff#\)	.
.	.	.	.	[8f#/J)	.	.	.
=56	=56	=56	=56	=56	=56	=56	=56
(4DD#/	.	8d#\L]	.	(8f#/L]	.	8ff#\L]	.
.	.	(8d#\	.	8g#/J	.	(8ff#\	.
4FF#/	.	8c#\	.	[4an/)	.	8ee\	.
.	.	8B\J	.	.	.	8dd#\J	.
2EE/)	.	8An/L	.	8a/L]	.	8cc#\L	.
.	.	8B/J	.	(8a/	.	8dd#\J	.
.	.	[4c#\)	.	8g#/	.	[4ee\)	.
.	.	.	.	8f#/J	.	.	.
=57	=57	=57	=57	=57	=57	=57	=57
(4CC#/	.	8c#/L]	.	8e/L	.	8ee\L]	.
.	.	(8c#/	.	8f#/J	.	(8ee\	.
4EE/	.	8B/	.	4g#/)	.	8dd#\	.
.	.	8An/J	.	.	.	[8cc#\J)	.
4DD#/	.	8d#\L)	.	(8f#/L	.	8cc#\L]	.
.	.	(8d#\	.	8g#/J	.	(8ff#\	.
4FF#/)	.	8c#\	.	4an/)	.	8ee\	.
.	.	8B\J	.	.	.	[8dd#\J)	.
=58	=58	=58	=58	=58	=58	=58	=58
(4EE/	.	8e\L)	.	(8g#/L	.	8dd#\L]	.
.	.	(8e\	.	8an/J	.	(8gg#\	.
4GG#/	.	8d#\	.	4b\)	.	8ff#\	.
.	.	8c#\J	.	.	.	[8ee\J)	.
4FF#/	.	8f#\L)	.	(8a/L	.	8ee\L]	.
.	.	(8f#\	.	8b/J	.	(8aan\	.
4AAn/)	.	8e\	.	[4cc#\)	.	8gg#\	.
.	.	[8d#\J)	.	.	.	[8ff#\J)	.
=59	=59	=59	=59	=59	=59	=59	=59
(4GG#/	.	8d#\L]	.	8cc#\L]	.	8ff#\L]	.
.	.	(8g#\	.	(8b\	.	(8bb\	.
4BB/	.	8f#\	.	8cc#\	.	8aan\	.
.	.	[8e\J)	.	[8ddn\J)	.	[8gg#\J)	.
4AAn/	.	8e\L]	.	8dd\L]	.	8gg#\L]	.
.	.	(8e\	.	(8cc#\	.	(8ccc#\	.
4C#/)	.	8dn\	.	8dd\	.	8bb\	.
.	.	8c#\J	.	[8ee\J)	.	[8aa\J)	.
=60	=60	=60	=60	=60	=60	=60	=60
*k[f#c#g#]	*k[f#c#g#]	*k[f#c#g#]	*k[f#c#g#]	*k[f#c#g#]	*k[f#c#g#]	*k[f#c#g#]	*k[f#c#g#]
(4BB/	.	8Gn/L	.	8ee\L]	.	8aa\L]	.
.	.	8F#/	.	(8ddn\	.	(8dddn\	.
4Dn\	.	8E#/	.	8an\	.	8ccc#\	.
.	.	8dn/J	.	8g#\J	.	[8bb\J)	.
4C#/	.	8en/L)	.	8gn/L)	.	8bb\L]	.
.	.	(8En/	.	(8cc#/	.	(8eee\	.
[4E\)	.	8F#/	.	8b/	.	8dddn\	.
.	.	[8G#/J)	.	[8a#/J)	.	[8ccc#\J)	.
=61	=61	=61	=61	=61	=61	=61	=61
8E\L]	.	8G#/L]	.	8a#\L]	.	(8ccc#\L]	.
(8D\	.	(8F#/	.	(8bn\	.	8fff#\)	.
8E\	.	8G#/	.	8cc#\	.	8r	.
8F#\J	.	8A/J	.	8dd\J)	.	[8ddd\J	.
8G#\L	.	8B/L)	.	(8e/	.	(8ddd\L]	.
8A\	.	(8A/	.	4an/	.	8ccc#\	.
8D\	.	8F#/	.	.	.	8ddd\	.
[8E\J)	.	8G#/J)	.	8g#/)	.	8bbn\J)	.
=62	=62	=62	=62	=62	=62	=62	=62
8E\L]	.	(8A#/L	.	(8cc#\L	.	1r	.
8D\	.	8d/	.	8ff#\)	.	.	.
8E\	.	8c#/	.	8r	.	.	.
8F#\J	.	[8B/J)	.	[8dd\J	.	.	.
4E\	.	(8B/L]	.	(8dd\L]	.	.	.
.	.	8An/	.	8cc#\	.	.	.
*clefC4	*clefC4	*	*	*	*	*	*
4g#\	.	8E/	.	8dd\	.	.	.
.	.	[8d/J)	.	[8b\J)	.	.	.
=63	=63	=63	=63	=63	=63	=63	=63
(2a\	p	(8d\L]	p	(8b/L]	.	4r	.
.	.	8c#\J)	.	8a/J)	p	.	.
.	.	[4cc#\	.	2r	.	(4eee\	p
(2a\)	.	8cc#\L]	.	.	.	2ggg#\	.
.	.	(8c#\	.	.	.	.	.
.	.	8.e#\	.	(4dd\	.	.	.
.	.	16f#\Jk)	.	.	.	.	.
=64	=64	=64	=64	=64	=64	=64	=64
[1a)	.	(2d\	.	4.ee#\	.	2aaa\	.
.	.	.	.	8ff#\	.	.	.
.	.	4f#\	.	4dd\)	.	[2fff#\)	.
.	.	4dd\	.	(4ff#\	.	.	.
=65	=65	=65	=65	=65	=65	=65	=65
(2.a\]	.	4b#\	.	4dd#\	.	(4fff#\]	.
.	.	4cc#\	.	4een\	.	4eee\	.
.	.	(4b#\)	.	4ff#\	.	4ddd#\	.
4a\)	.	4b#\)	.	4dd#\)	.	4fff#\	.
=66	=66	=66	=66	=66	=66	=66	=66
2g#\	p	(4b\	p	(4ee\	p	4eee\	p
.	.	2ee\	.	4bb\	.	4dddn\	.
[2a\	.	.	.	4aa\	.	4ccc#\	.
.	.	4dd\	.	4bb\)	.	4ddd\)	.
=67	=67	=67	=67	=67	=67	=67	=67
4a\]	.	4cc#\)	.	(4aa\	.	2.eee\	.
4r	.	4r	.	4gg#\	.	.	.
2r	.	2r	.	4ff#\	.	.	.
.	.	.	.	4gg#\)	.	(4eee\	.
=68	=68	=68	=68	=68	=68	=68	=68
1r	.	1r	.	2.aa\	.	4ddd\	.
.	.	.	.	.	.	4ccc#\	.
.	.	.	.	.	.	4bb\	.
.	.	.	.	(4aa\	.	4ccc#\)	.
=69	=69	=69	=69	=69	=69	=69	=69
1r	.	1r	.	4gg#\	.	2.ddd\	.
.	.	.	.	4ff#\	.	.	.
.	.	.	.	4ee#\	.	.	.
.	.	.	.	4ff#\)	.	(4ddd\	.
=70	=70	=70	=70	=70	=70	=70	=70
1r	.	1r	.	2.gg#\	.	4ccc#\	.
.	.	.	.	.	.	[4bb\)	.
.	.	.	.	.	.	(8bb\L]	.
.	.	.	.	.	.	8aa\J	.
.	.	.	.	[4gg#\	.	4bb\)	.
=71	=71	=71	=71	=71	=71	=71	=71
1r	.	1r	.	(8gg#\L]	.	2ccc#\	.
.	.	.	.	8ff#\J	.	.	.
.	.	.	.	2ee\	.	.	.
.	.	.	.	.	.	(4ff#\	.
.	.	.	.	[4dd\)	.	4gg#\	.
=72	=72	=72	=72	=72	=72	=72	=72
2r	.	2r	.	(8dd\L]	.	2aa\)	.
.	.	.	.	8cc#\J	.	.	.
.	.	.	.	2b\	.	.	.
4r	.	8r	.	.	.	(4dd\	.
.	.	(8a\	.	.	.	.	.
4a\	.	4gn\)	.	4cc#\)	.	4ee\	.
=73	=73	=73	=73	=73	=73	=73	=73
(4a\	.	4f#\	.	[1dd	.	4ff#\	.
4gn\	.	2r	.	.	.	4ee\	.
4f#\	.	.	.	.	.	4dd\	.
4g\)	.	4d\	.	.	.	4ee\	.
=74	=74	=74	=74	=74	=74	=74	=74
2.a\	.	(4d\	.	4dd\]	.	4ff#\)	.
.	.	4c#\	.	4r	.	4r	.
.	.	4B/	.	2r	.	2r	.
(4a\	.	4c#\)	.	.	.	.	.
=75	=75	=75	=75	=75	=75	=75	=75
4gn\	.	2.d\	.	1r	.	1r	.
4f#\	.	.	.	.	.	.	.
4e\	.	.	.	.	.	.	.
4f#\)	.	(4d\	.	.	.	.	.
=76	=76	=76	=76	=76	=76	=76	=76
2.gn\	.	4c#\	.	1r	.	1r	.
.	.	4B/	.	.	.	.	.
.	.	4A#/	.	.	.	.	.
(4g\	.	4B/)	.	.	.	.	.
=77	=77	=77	=77	=77	=77	=77	=77
4f#\	.	2.c#\	.	1r	.	1r	.
[4e\)	.	.	.	.	.	.	.
(8e\L]	.	.	.	.	.	.	.
8d\J	.	.	.	.	.	.	.
4e\)	.	[4c#\	.	.	.	.	.
=78	=78	=78	=78	=78	=78	=78	=78
2f#\	.	(8c#/L]	.	1r	.	1r	.
.	.	8B/J	.	.	.	.	.
.	.	[4A/)	.	.	.	.	.
(4B\	.	(8A\L]	.	.	.	.	.
.	.	8a\J)	.	.	.	.	.
4c#\)	.	[4gn\	.	.	.	.	.
=79	=79	=79	=79	=79	=79	=79	=79
[1d	.	(8g\L]	.	2r	.	1r	.
.	.	8gn\J	.	.	.	.	.
.	.	2f#\	.	.	.	.	.
.	.	.	.	(4aa\	.	.	.
.	.	4e#\)	.	4bb\	.	.	.
=80	=80	=80	=80	=80	=80	=80	=80
8d\L]	.	2en\	.	2ccc#\)	.	1r	.
(8d\J	.	.	.	.	.	.	.
2c#\)	.	.	.	.	.	.	.
.	.	2d\	.	(4ff#\	.	.	.
[4B\	.	.	.	4gg#\	.	.	.
=81	=81	=81	=81	=81	=81	=81	=81
8B\L]	.	[2c#\	.	2aa\)	.	2r	.
8B\J	.	.	.	.	.	.	.
2A\	.	.	.	.	.	.	.
.	.	8c#\L]	.	2r	.	(4ee\	.
.	.	(8c#\J	.	.	.	.	.
[4G#/	.	4B#/)	.	.	.	4ff#\	.
=82	=82	=82	=82	=82	=82	=82	=82
8G#/L]	.	4cn\	.	2r	.	2gg#\)	.
8F#/J	.	.	.	.	.	.	.
[4E/	.	2G#/	.	.	.	.	.
8E/]	.	.	.	4e/	.	(4cc#\	.
*clefF4	*clefF4	*	*	*	*	*	*
8C#/	.	.	.	.	.	.	.
4BB/	.	(4G#/	.	[4f#/	.	[4dd#\)	.
=83	=83	=83	=83	=83	=83	=83	=83
*k[f#c#g#d#]	*k[f#c#g#d#]	*k[f#c#g#d#]	*k[f#c#g#d#]	*k[f#c#g#d#]	*k[f#c#g#d#]	*k[f#c#g#d#]	*k[f#c#g#d#]
(4BB#/	p	4A/	p	(4f#/]	p	(4dd#\]	p
4D#\	.	2G#/)	.	4B#/	.	4ff#\	.
4C#/	.	.	.	4c#/	.	4ee\	.
4BB#/	.	[4G#/	.	4f#/	.	4dd#\	.
=84	=84	=84	=84	=84	=84	=84	=84
4C#/	.	(4G#/]	.	4en/	.	4ee\	.
4En\	.	4E/	.	4G#/	.	4gg#\	.
4D#\	.	4F#/	.	4B#/	.	4ff#\	.
4C#/)	.	4G#/)	.	4c#/)	.	4ee\)	.
=85	=85	=85	=85	=85	=85	=85	=85
(4D#\	.	(4f#\	.	(4b#\	.	[1gg#	.
4F#\	.	4d#\	.	4dd#\	.	.	.
4E\	.	4e\	.	4cc#\	.	.	.
4D#\	.	4f#\	.	4b#\	.	.	.
=86	=86	=86	=86	=86	=86	=86	=86
4E\	.	4g#\	.	4cc#\	.	2.gg#\]	.
4G#\	.	4e\	.	4ee\	.	.	.
4F#\	.	4b#\	.	4dd#\	.	.	.
4E\)	.	4cc#\)	.	4ee\)	.	(4gg#\	.
=87	=87	=87	=87	=87	=87	=87	=87
1GG#	.	(4dd#\	.	(4ff#\	.	4bb#\	.
.	.	4b#\	.	4dd#\	.	4ddd#\	.
.	.	4cc#\	.	4ee\	.	4ccc#\	.
.	.	4dd#\	.	4ff#\	.	4bb#\	.
=88	=88	=88	=88	=88	=88	=88	=88
(2C#/	.	4g#\	.	4ee\	.	4ccc#\	.
.	.	4e\	.	4g#/	.	4eee\	.
4D#\	.	4f#\	.	4b#\	.	4ddd#\	.
4E\)	.	[4g#\)	.	[4cc#\)	.	[4ccc#\)	.
=89	=89	=89	=89	=89	=89	=89	=89
(2E#\	.	(4g#\]	.	(4cc#\]	.	(4ccc#\]	.
.	.	4B/	.	4ddn\	.	4gg#\	.
4F#\	.	4A/	.	4cc#\	.	4aa\	.
4G#\	.	4B/	.	4dn/) 4dd/	.	4ee#\	.
=90	=90	=90	=90	=90	=90	=90	=90
4A\	.	4c#\	.	[2cc#\	.	4ff#\	.
4F##\	.	4A#/	.	.	.	4dd#\	.
4G#\	.	4c#\	.	(8cc#/L]	.	4.een\	.
.	.	.	.	8e/J	.	.	.
4GG#/)	.	4B#/)	.	4f#/)	.	.	.
.	.	.	.	.	.	[8dd#\)	p
=91	=91	=91	=91	=91	=91	=91	=91
1r	p	1r	p	2r	p	8dd#\L]	.
.	.	.	.	.	.	(8ff#\	.
.	.	.	.	.	.	8ee\	.
.	.	.	.	.	.	8dd#\J	.
.	.	.	.	8r	.	8cc#\L	.
.	.	.	.	(8a/L	p	8dd#\J	.
.	.	.	.	8g#/	.	[4ee\)	.
.	.	.	.	8f#/J	.	.	.
=92	=92	=92	=92	=92	=92	=92	=92
1r	.	2r	.	8e/L	.	8ee\L]	.
.	.	.	.	8f#/J	.	(8ee\	.
.	.	.	.	[4g#/)	.	8dd#\	.
.	.	.	.	.	.	8cc#\J	.
.	.	4r	.	8g#/L]	.	8b#\L	.
.	.	.	.	(8g#/	.	8cc#\J	.
.	.	(4G#/	p	8f#/	.	[4dd#\)	.
.	.	.	.	8e/J	.	.	.
=93	=93	=93	=93	=93	=93	=93	=93
1r	.	2B#/	.	8d#/L	.	8dd#\L]	.
.	.	.	.	8e/	.	(8aa\	.
.	.	.	.	8f#/	.	8gg#\	.
.	.	.	.	(8dd#/J)	.	8ff#\J	.
.	.	2c#\)	.	4dd#\)	.	8ee#\L	.
.	.	.	.	.	.	8ff#\J	.
.	.	.	.	&(8ee#/L&)	.	[4gg#\)	.
.	.	.	.	(8c#/J	.	.	.
=94	=94	=94	=94	=94	=94	=94	=94
1r	.	2.A/	.	2e#/	.	8gg#\L]	.
.	.	.	.	.	.	(8bb\	.
.	.	.	.	.	.	8aa\	.
.	.	.	.	.	.	8gg#\J	.
.	.	.	.	2f#/)	.	8aa\L	.
.	.	.	.	.	.	8bb\J	.
.	.	(4G#/	.	.	.	[4ccc#\)	.
=95	=95	=95	=95	=95	=95	=95	=95
1r	.	4F#/	p	2.dn/	.	8ccc#\L]	.
.	.	.	.	.	.	(8ccc#\	.
.	.	4A/	.	.	.	8bb\	.
.	.	.	.	.	.	8aa\J	.
.	.	4G#/	.	.	.	8bb\L	.
.	.	.	.	.	.	8dddn\	.
.	.	4F#/	.	[4ddn\	.	8ccc#\	.
.	.	.	.	.	.	[8bb\J)	.
=96	=96	=96	=96	=96	=96	=96	=96
1r	.	4E#/	.	4dd\]	p	8bb\L]	.
.	.	.	.	.	.	(8bb\	.
.	.	4F#/)	.	[4ddn\	.	8aa\	.
.	.	.	.	.	.	8gg#\J	.
.	.	[2G#/	.	8dd\L]	.	8ff#\L	.
.	.	.	.	(8dd\	.	8ffn\	.
.	.	.	.	8cc#\	.	8ff#\	.
.	.	.	.	8b\J	.	8gg#\J)	.
=97	=97	=97	=97	=97	=97	=97	=97
1r	.	8G#/L]	.	8a/L	.	4cc#\	.
.	.	(8G#/	.	8b/J	.	.	.
.	.	8F#/	.	[4cc#\)	.	4r	.
.	.	8En/J	.	.	.	.	.
.	.	8Dn/L	.	8cc#\L]	.	2r	.
.	.	8E/J	.	(8cc#\	.	.	.
.	.	[4F#/)	.	8b\	.	.	.
.	.	.	.	8a\J	.	.	.
=98	=98	=98	=98	=98	=98	=98	=98
1r	.	8F#/L]	.	8g#/L	.	2r	.
.	.	(8F#/	.	8a/J	.	.	.
.	.	8E#/	.	[4b\)	.	.	.
.	.	8C#/J	.	.	.	.	.
.	.	8F#/)	.	(8b/L]	.	4r	.
.	.	(4f#\	.	8a/J)	.	.	.
.	.	.	.	[4g#/	.	(4cc#\	.
.	.	8e#\)	.	.	.	.	.
=99	=99	=99	=99	=99	=99	=99	=99
2r	.	(8b\L	.	(8g#/L]	.	2ee#\	.
.	.	8ddn\	.	8b/	.	.	.
.	.	8cc#\	.	8a/	.	.	.
.	.	[8b\J)	.	[8g#/J)	.	.	.
2FF#/	.	8b\L]	.	8g#/L]	.	2ff#\)	.
.	.	(8c#\	.	(8a/	.	.	.
.	.	8B\	.	8g#/	.	.	.
.	.	[8A\J)	.	[8f#/J)	.	.	.
=100	=100	=100	=100	=100	=100	=100	=100
1BB#	.	8A/L]	.	8f#/L]	.	2.dd#\	.
.	.	(8A/	.	(8f#/	.	.	.
.	.	8G#/	.	8g#/	.	.	.
.	.	[8F#/J)	.	[8a/J)	.	.	.
.	.	8F#/L]	.	8a/L]	.	.	.
.	.	(8F#/	.	(8a/	.	.	.
.	.	8G#/	.	8g#/	.	(4dd#\	p
.	.	[8A/J)	.	[8f#/J)	.	.	.
=101	=101	=101	=101	=101	=101	=101	=101
1C#	.	8A/L]	.	8f#/L]	.	4cc#\	.
.	.	(8G#/	.	(8e/	.	.	.
.	.	8F#/)	.	8d#/	.	4ee\	.
.	.	[8E/J	.	[8c#/J)	.	.	.
.	.	8E/L]	.	8c#/L]	.	4dd#\	.
.	.	(8E/	.	(8c#/	.	.	.
.	.	8F#/	.	8d#/	.	4cc#\)	.
.	.	8G#/J)	.	8e/J	.	.	.
=102	=102	=102	=102	=102	=102	=102	=102
[1AA	.	4F#/	f	8d#/L) 8f#/	f	(4b#\	f
.	.	.	.	(8d#/	.	.	.
.	.	4.F#/	.	8e/	.	4cc#\)	.
.	.	.	.	8f#/J)	.	.	.
.	.	.	.	[2f#/	.	[2dd#\	.
.	.	(8D#/L	.	.	.	.	.
.	.	8E/	.	.	.	.	.
.	.	8F#/J)	.	.	.	.	.
=103	=103	=103	=103	=103	=103	=103	=103
2AA/]	f	(8F#/L	.	(4f#/]	.	(4dd#\]	.
.	.	8BB#/	.	.	.	.	.
.	.	8C#/	.	8e/L	.	4ff#\	.
.	.	8D#/J)	.	[8d#/J)	.	.	.
2GG#/	.	(8C#/	.	(8d#/L]	.	4ee\	.
.	.	4F##/	.	8c#/J	.	.	.
.	.	.	.	[4B#/)	.	[4dd#\)	.
.	.	8G#/)	.	.	.	.	.
=104	=104	=104	=104	=104	=104	=104	=104
2FF#/	.	4.A/	.	8B#/L]	.	(4dd#\]	.
.	.	.	.	(8b#/J	.	.	.
.	.	.	.	[4a/)	.	4aa\	.
.	.	(8A/	.	.	.	.	.
2AA/	.	4.c#\)	.	8a/L]	.	4gg#\	.
.	.	.	.	(8e#/J	.	.	.
.	.	.	.	4f#/)	.	[4ff#\)	.
.	.	(8dn\	.	.	.	.	.
=105	=105	=105	=105	=105	=105	=105	=105
2GG#/	.	4.B/)	.	8r	.	(4ff#\]	.
.	.	.	.	(8bn\	.	.	.
.	.	.	.	4.e#/)	.	4bb\	.
.	.	(8C#/	.	.	.	.	.
2FF#/	.	4c#\	.	.	.	4aa\	.
.	.	.	.	(8f#/	.	.	.
.	.	8d#\L	.	[4b#\)	.	[4gg#\)	.
.	.	[8g#\J)	.	.	.	.	.
=106	=106	=106	=106	=106	=106	=106	=106
2EE/	.	4.g#\]	.	8b#\L]	.	(4gg#\]	.
.	.	.	.	(8cc#\J	.	.	.
.	.	.	.	4.c#/)	.	4ccc#\	.
.	.	(8g#\	.	.	.	.	.
2FF#/	.	4.C#/)	.	.	.	4bb\	.
.	.	.	.	(8c#/	.	.	.
.	.	.	.	4cc#\)	.	4aa\)	.
.	.	(8f#\	.	.	.	.	.
=107	=107	=107	=107	=107	=107	=107	=107
2GGn/	.	4.e\)	.	8r	.	(2.ccc#\	.
.	.	.	.	(8a/	.	.	.
.	.	.	.	[4ee\)	.	.	.
.	.	(8A/	.	.	.	.	.
[2FF#/	.	4a\)	.	(8ee\L]	.	.	.
.	.	.	.	8ddn\)	.	.	.
.	.	(4F#/	.	(8dd\	.	4dddn\)	.
.	.	.	.	8g#\J)	.	.	.
=108	=108	=108	=108	=108	=108	=108	=108
2FF#/]	p	2.B#/	.	4.dd#\	p	8r	.
.	.	.	.	.	.	(8gg#\	p
.	.	.	.	.	.	4.g#/)	.
.	.	.	.	(8d#/	.	.	.
(2EE/	.	.	.	(4G#/)	.	.	.
.	.	.	.	.	.	(8gg#\	.
.	.	4c#\)	.	8A#/L)	.	4ff#\)	.
.	.	.	.	[8a#/J	.	.	.
=109	=109	=109	=109	=109	=109	=109	=109
2EE/)	.	4.F#/	.	8a#\L]	.	(2.aa#\	.
.	.	.	.	(8ff#\J	.	.	.
.	.	.	.	[4f#/)	.	.	.
.	.	(8c#\	.	.	.	.	.
[2DD#/	.	4.F#/)	.	8f#/L]	.	.	.
.	.	.	.	(8ff#/	.	.	.
.	.	.	.	8g#/)	.	[4bb#\)	.
.	.	(8d#\	.	(8G#/J	.	.	.
=110	=110	=110	=110	=110	=110	=110	=110
2DD#/]	.	4.G#/)	.	2B#/	.	8bb#\L]	.
.	.	.	.	.	.	(8b#\J	p
.	.	.	.	.	.	[4.ff#\)	.
.	.	(8g#\	.	.	.	.	.
4CC#/	.	4.G#/)	.	2c#/)	.	.	.
.	.	.	.	.	.	(8ff#\L]	.
(4CC#/	.	.	.	.	.	8ee#\	.
.	.	(8g#\	.	.	.	[8cc#\J)	.
=111	=111	=111	=111	=111	=111	=111	=111
2EE#/	.	4.C#/)	p	(2G#/	p	8cc#\L]	.
.	.	.	.	.	.	(8ccc#\J	.
.	.	.	.	.	.	4.cc#\	.
.	.	(8c#\	.	.	.	.	.
2FF#/)	.	4.C#/)	.	[2A/)	.	.	.
.	.	.	.	.	.	8dddn\	.
.	.	.	.	.	.	4ccc#\)	.
.	.	(8f#\	.	.	.	.	.
=112	=112	=112	=112	=112	=112	=112	=112
(2DDn/	f	4.Dn/)	.	8A/L]	.	(2fffn\	.
.	.	.	.	(8a/J	.	.	.
.	.	.	.	4.A/)	.	.	.
.	.	(8a\	.	.	.	.	.
4CC#/	.	4.F#/) 4.A/	.	.	.	2fff#\)	.
.	.	.	.	(8bb\	.	.	.
[4BBB#/)	.	.	.	[4a\) [4aa\	.	.	.
.	.	(8f#\	.	.	.	.	.
=113	=113	=113	=113	=113	=113	=113	=113
1BBB#]	.	4F#/) 4A/	.	4a\] 4aa\]	.	1dddn	.
.	.	(4F#/	.	(4a/	.	.	.
.	.	4G#/	.	4g#/	.	.	.
.	.	4A/	.	4f#/	.	.	.
=114	=114	=114	=114	=114	=114	=114	=114
2.CC#/	p	4G#/	p	4e#/	.	2.ccc#\	.
.	.	4F#/	.	4f#/	p	.	.
.	.	4E#/)	.	4g#/)	.	.	.
[4BBB#/	.	[4F#/	.	[4a\ [4aa\	.	[4dddn\	p
=115	=115	=115	=115	=115	=115	=115	=115
1BBB#]	.	4F#/]	.	4a\] 4aa\]	.	1ddd]	.
.	.	(4F#/	.	(4a/	.	.	.
.	.	4G#/	.	4g#/	.	.	.
.	.	4A/	.	4f#/	.	.	.
=116	=116	=116	=116	=116	=116	=116	=116
2.CC#/	p	4G#/	p	4e#/	p	2.ccc#\	p
.	.	4F#/	.	4f#/	.	.	.
.	.	4E#/)	.	4g#/)	.	.	.
[4CC#/	.	[4F#/	.	[4B#/ [4d#/	.	[4aa\	.
=117	=117	=117	=117	=117	=117	=117	=117
*^	*	*	*	*	*	*	*
2r	1CC#]	.	4F#/]	.	4B#/] 4d#/]	.	4aa\]	.
.	.	.	(4F#/	.	(4B#/ 4d#/	.	(4aa\	.
(4GG#/	.	.	4G#/	.	4c#/ 4e#/	.	4gg#\	.
4AA/	.	.	4A/	.	4B#/ 4d#/	.	4ff#\	.
=118	=118	=118	=118	=118	=118	=118	=118	=118
4GG#/	&(2CC#\&)	p	4G#/	.	4c#/ 4e#/	.	4ee#\	p
4AA/)	.	.	4F#/	p	4B#/) 4d#/	p	4ff#\)	.
[2GG#/	(2CC#\	.	4E#/)	.	2e#/ [2cc#/	.	[2gg#\	.
.	.	.	[4C#/ [4G#/	.	.	.	.	.
=119	=119	=119	=119	=119	=119	=119	=119	=119
2.GG#/]	(2.CC#\)	.	2.C#/_ 2.G#/_	.	[2.fn/ 2.cc#/_	.	2.gg#\_	.
4AA/	4CC#\)	.	(4C#/] 4G#/]	.	(4f/] 4cc#/]	.	(4gg#\]	.
*v	*v	*	*	*	*	*	*	*
=120	=120	=120	=120	=120	=120	=120	=120
&(4CC#/&) 4GG#/	p	(4C#/) 4G#/	p	(4fn/) 4cc#/	p	(4gg#\)	p
(4CC#/	.	(4C#/) 4G#/	.	(4f/) 4cc#/	.	(4gg#\)	.
[2C#/)	p	4C#/) 4G#/	p	4f/) 4cc#/	p	4gg#\)	p
.	.	(4C#/	pp	[4c#/	pp	(4c#/	pp
=121	=121	=121	=121	=121	=121	=121	=121
2.C#;/]	pp	2.c#;\)	.	2.c#;/]	.	2.cc#;\)	.
==	==	==	==	==	==	==	==
*-	*-	*-	*-	*-	*-	*-	*-
!!!ENC: Craig Stuart Sapp
!!!END: 2004/09/09/
